X: 67
T:The Dairymaid
M:4/4
L:1/8
F:http://blackrosetheband.googlepages.com/ABCTUNES.ABC May 2009
K:D
"D"AF ~F2 DFBD|AFDE "A7"FE ~E2|"D"AF ~F2 BFAF|"A7"~E2 DE FD D2|
"D"AF ~F2 DFBD|AFDE "A7"FE ~E2|"G"~G3 E "D"~F3 D|"A7"~E2 DE "D"FD D2||
"D"~d3 f ~a3 g|"Bm"fgef dB ~B2|"D"dfaf "G"~g2 ag|"A7"(3f^ga e=g "D"fd d2 |
"D"dfaf "G"~g2 ag|"D"fgef "Bm"dB ~B2|"D"dfaf "G"g2 ag|"A7"faeg "D"fd d2 ||

